X:1
T:All the World for Jesus
T:All the World for Jesus
T:James Henry Fillmore
T:Grace Weiser Davis, 1894
T:Public Domain Courtesy of the Cyber Hymnal™
C:James Henry Fillmore
Z:Public Domain
Z:Courtesy of the Cyber Hymnal™
%%score ( 1 2 ) ( 3 4 )
L:1/8
M:4/4
K:Ab
V:1 treble 
V:2 treble 
V:3 bass 
V:4 bass 
V:1
 [Ec]3 [=D=B] [Ec]2 [EA]2 | [FA]4 [DF]2 [DF]2 | [CE]2 [CA]2 [Ec]2 [Ec]2 | [EB]6 E2 | %4
w: 1.~All the world for|Je- sus! Be|this our ear- nest|aim; To|
w: 2.~All the world for|Je- sus! Let|each one pray and|give, Un-|
w: 3.~All the world for|Je- sus! We’ll|give, at His be-|hest, To|
w: 4.~All the world for|Je- sus! And|Je- sus for the|world! For-|
 [Ec]3 [=D=B] [Ec]2 [EA]2 | [FA]4 [DF]2 [DF]2 | [CE]2 [CA]2 [Ec]2 [DB]2 | z4 x6 || %8
w: spread the bless- èd|tid- ings Of|Him Who once was||
w: til re- mot- est|na- tions Shall|look to Him and||
w: raise the poor and|help- less, Till|all have Christ con-||
w: ev- er be His|ban- ner Of|vic- to- ry un-||
"^Refrain" [Ae]3 [A=d] [Ae]2 [Ac]2 | [Ac]4 [GB]2 [Ac]2 | [Bd]2 [Bd]2 [Ac]2 [GB]2 | z4 x6 | %12
w: slain. * * *||||
w: live. All the world|for Je- sus,|Let ev- ’ry crea-||
w: fessed. * * *||||
w: furled. * * *||||
 [Ae]3 [A=d] [Ae]2 [Ac]2 | [Ac]4 [GB]2 [_Gc]2 | [Fd]2 [Fd]2 [Ec]2 [EB]2 | [EA]6 z2 |] %16
w: ||||
w: ture sing; All the|world for Je-|sus, Our great e-|tern-|
w: ||||
w: ||||
V:2
 x8 | x8 | x8 | x6 E2 | x8 | x8 | x8 | [CA]6 ABcd || x8 | x8 | x8 | [Ac]6 ABcd | x8 | x8 | x8 | %15
 x8 |] %16
V:3
 [A,,A,]3 [A,,A,] [A,,A,]2 [C,A,]2 | [D,A,]4 [D,A,]2 [D,A,]2 | [A,,A,]2 [A,,A,]2 [A,,A,]2 [C,A,]2 | %3
 [E,G,]6 [E,G,]2 | A,3 A, A,2 [C,A,]2 | [D,A,]4 [D,A,]2 [D,A,]2 | [E,A,]2 [E,A,]2 [E,A,]2 [E,G,]2 | %7
 [A,,A,]6 z2 x2 || [A,C]3 [A,=B,] [A,C]2 [A,E]2 | [E,E]4 [E,E]2 [E,E]2 | %10
 [E,E]2 [E,E]2 [E,E]2 [E,E]2 | [A,E]6 z2 x2 | [A,C]3 [A,=B,] [A,C]2 [A,E]2 | [E,E]4 [E,E]2 A,2 | %14
 [D,A,]2 [D,A,]2 [E,A,]2 [E,D]2 | [A,,C]6 z2 |] %16
V:4
 x8 | x8 | x8 | x8 | A,3 A, A,2 x2 | x8 | x8 | x10 || x8 | x8 | x8 | x10 | x8 | x6 A,2 | x8 | x8 |] %16

